X:1
T:Title
%%score { ( 1 4 ) | ( 2 3 ) }
L:1/8
M:6/8
K:C
V:1 treble nm="Grand Piano"
V:4 treble 
V:2 bass 
V:3 bass 
V:1
 z3 z2[Q:1/4=100] [EG] | [EG][FA][EG] [CE][DF][EG] | A>cc c2 c | [Ge]>[Fd][Ec] cBc | d3- d2 d | %5
 [Ge][Ge][Ge] [Ec][Ec][Ec] | dcA [Ac]2 A | GGG Bcd |[M:5/8] [Ec]-[Ec]- [Ec]3 |[M:1/8] [EG] | %10
[M:3/4] [Ge]6 | [EG]6 | [Ge]>[Fd] [Ec]c Bc | d4- dd | [Ge][Ge] [Ge][Ec] [Ec][Ec] | dc A [Ac]2 A | %16
 GG GB cd |[M:13/8] [Ec]-[Ec]- [Ec]3 z z z z z z z2 |] %18
V:2
 z3 z2 [C,C] | [C,C][C,C][C,C] [C,G,][C,G,][C,C] | [F,CF]>[F,A,F][F,A,F] [F,A,F]2 [F,A,F] | %3
 [C,C]>[C,C][C,C][K:treble] [A,CE]2 [A,C^F] | [G,B,G]3- [G,B,G]2 [G,B,G] | %5
 [C,C][C,C][C,C] [C,G,][C,G,][C,G,] | [F,A,F][F,A,F][F,CF] [F,C]2[K:treble] [F,CF] | %7
 [G,CE][G,B,D][G,B,D] D[CE][G,B,F] |[M:5/8][K:bass] [C,C]-[C,C]- [C,C]3 |[M:1/8] [C,C] | %10
[M:3/4] [C,C]2 C,C, C,[C,C] | [C,C]2 C, C,2 [C,C] | [C,C]>[C,C] [C,C][K:treble] [A,CE]2 [A,C^F] | %13
 [G,B,G]4- [G,B,G][G,B,G] | [C,C][C,C] [C,C][C,G,] [C,G,][C,G,] | %15
 [F,A,F][F,A,F] [F,CF] [F,C]2[K:treble] [F,CF] | [G,CE][G,B,D] [G,B,D]D [CE][G,B,F] | %17
[M:13/8][K:bass] [C,C]-[C,C]- [C,C]3 z z z z z z z2 |] %18
V:3
 x6 | x6 | x6 | x3[K:treble] x3 | x6 | x6 | x5[K:treble] x | z3 .G,3 |[M:5/8][K:bass] x5 | %9
[M:1/8] x |[M:3/4] x6 | x6 | x3[K:treble] x3 | x6 | x6 | x5[K:treble] x | z2 z .G,3 | %17
[M:13/8][K:bass] x13 |] %18
V:4
 x6 | x6 | x6 | x6 | x6 | x6 | x6 | x6 |[M:5/8] x5 |[M:1/8] x |[M:3/4] z2 CC C[Ac]/[FA]/ | %11
 z2 C C2 [EG] | x6 | x6 | x6 | x6 | x6 |[M:13/8] x13 |] %18

